resources/svg/major-product-cost.svg

<svg xmlns="http://www.w3.org/2000/svg" viewBox="0 0 20 20" fill="currentColor"><path d="M17 1H11C10.2322 1 9.46447 1.29335 8.87868 1.87913L1.87868 8.87913C0.707107 10.0507 0.707107 11.9502 1.87868 13.1218L6.87868 18.1218C7.72276 18.9659 8.94468 19.2018 10 18.8296C11.1069 18.4392 11.076 17.9434 11.0249 17.1256C11.013 16.9354 11 16.7278 11 16.5C11 12.5259 14.091 9.27369 18 9.0164C18.3333 9.01093 19 8.8 19 8V3C19 1.89543 18.1046 1 17 1ZM16 6C16 7.10457 15.1046 8 14 8C12.8954 8 12 7.10457 12 6C12 4.89543 12.8954 4 14 4C15.1046 4 16 4.89543 16 6ZM16.3158 11C16.8002 11 17.193 11.3358 17.193 11.75V11.8973C17.6272 12.0275 18.1657 12.271 18.6904 12.7197C19.033 13.0126 19.033 13.4874 18.6904 13.7803C18.3479 14.0732 17.7925 14.0732 17.4499 13.7803C17.1185 13.497 16.8018 13.3666 16.5866 13.3053C16.4775 13.2742 16.3924 13.2603 16.3425 13.2542C16.3229 13.2518 16.3089 13.2506 16.3014 13.2501C15.8232 13.2566 15.4386 13.5896 15.4386 14C15.4386 14.3649 15.5616 14.4539 15.636 14.5016C15.7962 14.6043 16.046 14.6692 16.5285 14.7724L16.5865 14.7847C16.9827 14.8689 17.5743 14.9945 18.0482 15.2984C18.6318 15.6726 18.9474 16.2399 18.9474 17C18.9474 17.98 18.2152 18.8133 17.193 19.122V19.25C17.193 19.6642 16.8002 20 16.3158 20C15.8313 20 15.4386 19.6642 15.4386 19.25V19.1027C15.0044 18.9725 14.4659 18.729 13.9411 18.2803C13.5986 17.9874 13.5986 17.5126 13.9411 17.2197C14.2837 16.9268 14.8391 16.9268 15.1817 17.2197C15.5131 17.503 15.8298 17.6334 16.0449 17.6947C16.154 17.7258 16.2392 17.7397 16.2891 17.7458C16.3087 17.7482 16.3226 17.7494 16.3301 17.7499C16.8083 17.7434 17.193 17.4104 17.193 17C17.193 16.6351 17.07 16.5461 16.9956 16.4984C16.8354 16.3957 16.5856 16.3308 16.103 16.2276L16.0451 16.2153C15.6489 16.1311 15.0572 16.0055 14.5833 15.7016C13.9998 15.3274 13.6842 14.7601 13.6842 14C13.6842 13.02 14.4163 12.1867 15.4386 11.8779V11.75C15.4386 11.3358 15.8313 11 16.3158 11Z" fill="#5C5F62"/></svg>

<svg xmlns="http://www.w3.org/2000/svg" viewBox="0 0 20 20" fill="currentColor"><path d="M17 1h-6c-.768 0-1.536.293-2.121.88l-7 7a3 3 0 0 0 0 4.242l5 5a3 3 0 0 0 3.121.708c1.107-.39 1.076-.887 1.025-1.704a7.5 7.5 0 0 1 6.975-8.11c.333-.005 1-.216 1-1.016v-5a2 2 0 0 0-2-2Zm-1 5a2 2 0 1 1-4 0 2 2 0 0 1 4 0Zm.316 5c.484 0 .877.336.877.75v.147c.434.13.973.374 1.497.823a.676.676 0 0 1 0 1.06.985.985 0 0 1-1.24 0 2.305 2.305 0 0 0-.863-.475 1.622 1.622 0 0 0-.286-.055c-.478.007-.862.34-.862.75 0 .365.123.454.197.502.16.102.41.167.893.27l.058.013c.396.084.987.21 1.461.513.584.375.9.942.9 1.702 0 .98-.733 1.813-1.755 2.122v.128c0 .414-.393.75-.877.75-.485 0-.877-.336-.877-.75v-.147a4.132 4.132 0 0 1-1.498-.823.676.676 0 0 1 0-1.06.986.986 0 0 1 1.24 0c.332.283.649.413.864.475a1.623 1.623 0 0 0 .285.055c.478-.007.863-.34.863-.75 0-.365-.123-.454-.197-.502-.16-.102-.41-.167-.893-.27l-.058-.013c-.396-.084-.988-.21-1.462-.513-.583-.375-.899-.942-.899-1.702 0-.98.732-1.813 1.755-2.122v-.128c0-.414.392-.75.877-.75Z"/></svg>
